X: 1
T:La luna dins l'aiga (Pierre-Marie Blaj)
C:Trad 2, 35
M:2/4
L:1/16
K:C
e2gf e2ge|fgaf d2ef|g2ge c2de|fedc BABc|\
e2gf e2ge|fgaf d2ef|g2c2 edcB|c4 c2B2:|
a2ag abc'2|b2ba g2e2|fgaf g2e2|fef^f g4|\
a2ag abc'2|b2ba g2e2|fgaf g2e2|1 dcBd c4:|2 g2^f2 g2=f2||
